src/22/mimetypes/image-x-psd.svg

<?xml version="1.0" encoding="UTF-8" standalone="no"?>

<!-- Created with Inkscape (http://www.inkscape.org/) -->
<svg width="22" version="1.1" xmlns="http://www.w3.org/2000/svg" height="22" xmlns:inkscape="http://www.inkscape.org/namespaces/inkscape">
 <defs id="defs3871"/>
 <metadata id="metadata3874"/>
 <g inkscape:label="Capa 1" inkscape:groupmode="layer" id="layer1" transform="matrix(1 0 0 1 -326 -534.3622)">
  <rect width="0" x="256.22556" y="514.69751" height="14.668059" style="fill:#e00a5e" id="rect4035"/>
  <rect width="0" x="263.18613" y="537.26813" height="14.668059" style="fill:#e00a5e" id="rect4035-8"/>
  <rect width="0" x="264.99942" y="536.2074" height="14.668059" style="fill:#e00a5e" id="rect4035-0"/>
  <rect width="0" x="256.22556" y="514.69751" height="14.668059" style="fill:#e00a5e" id="rect4035-3"/>
  <rect width="0" x="263.18613" y="537.26813" height="14.668059" style="fill:#e00a5e" id="rect4035-8-9"/>
  <rect width="0" x="264.99942" y="536.2074" height="14.668059" style="fill:#e00a5e" id="rect4035-0-4"/>
  <rect width="0" x="256.22556" y="514.69751" height="14.668059" style="fill:#e00a5e" id="rect4035-2"/>
  <rect width="0" x="263.18613" y="537.26813" height="14.668059" style="fill:#e00a5e" id="rect4035-8-99"/>
  <rect width="0" x="264.99942" y="536.2074" height="14.668059" style="fill:#e00a5e" id="rect4035-0-43"/>
  <rect width="0" x="256.22556" y="514.69751" height="14.668059" style="fill:#e00a5e" id="rect4035-3-9"/>
  <rect width="0" x="263.18613" y="537.26813" height="14.668059" style="fill:#e00a5e" id="rect4035-8-9-9"/>
  <rect width="0" x="264.99942" y="536.2074" height="14.668059" style="fill:#e00a5e" id="rect4035-0-4-4"/>
  <path style="fill:#3a539b;stroke-width:6" id="path4831" d="M 7 3 C 4.7908611 3.0000003 3.0000003 4.7908611 3 7 L 3 8 L 3.3144531 8.4941406 L 4.1113281 9.7480469 C 4.1119596 9.7487175 4.1126494 9.7493298 4.1132812 9.75 L 10 19 L 10 11 L 15 11 C 17.209139 11 19 9.2091389 19 7 C 19 4.7908611 17.209139 3.0000003 15 3 L 7 3 z M 15 4 A 3 3 0 0 1 15.576172 4.0585938 A 3 3 0 0 1 15.595703 4.0605469 C 15.613785 4.0641866 15.630474 4.0702555 15.648438 4.0742188 A 3 3 0 0 1 16.167969 4.2363281 A 3 3 0 0 1 16.646484 4.4941406 C 16.659939 4.5029989 16.674198 4.5104634 16.6875 4.5195312 A 3 3 0 0 1 16.693359 4.5234375 A 3 3 0 0 1 17.103516 4.8632812 C 17.111714 4.8713527 17.120801 4.8785542 17.128906 4.8867188 A 3 3 0 0 1 17.451172 5.2773438 C 17.468741 5.3022899 17.487086 5.3260646 17.503906 5.3515625 A 3 3 0 0 1 17.746094 5.8007812 C 17.753865 5.8185508 17.762096 5.8355684 17.769531 5.8535156 A 3 3 0 0 1 17.923828 6.3457031 C 17.929966 6.3732473 17.937984 6.3999104 17.943359 6.4277344 A 3 3 0 0 1 18 7 A 3 3 0 0 1 17.941406 7.5761719 A 3 3 0 0 1 17.939453 7.5957031 C 17.935813 7.6137845 17.929745 7.6304754 17.925781 7.6484375 A 3 3 0 0 1 17.763672 8.1679688 A 3 3 0 0 1 17.505859 8.6464844 C 17.497001 8.6599387 17.489537 8.6741979 17.480469 8.6875 A 3 3 0 0 1 17.476562 8.6933594 A 3 3 0 0 1 17.136719 9.1035156 C 17.128647 9.1117138 17.121446 9.120801 17.113281 9.1289062 A 3 3 0 0 1 16.722656 9.4511719 C 16.69771 9.4687411 16.673935 9.4870866 16.648438 9.5039062 A 3 3 0 0 1 16.199219 9.7460938 C 16.181449 9.7538646 16.164432 9.7620965 16.146484 9.7695312 A 3 3 0 0 1 15.654297 9.9238281 C 15.626753 9.9299663 15.60009 9.9379844 15.572266 9.9433594 A 3 3 0 0 1 15 10 A 3 3 0 0 1 12 7 A 3 3 0 0 1 15 4 z " transform="matrix(1 0 0 1 326 534.3622)"/>
 </g>
</svg>

<svg width="22" xmlns="http://www.w3.org/2000/svg" height="22"><path d="M7 3a4 4 0 0 0-4 4v1l.314.494.797 1.254.002.002L10 19v-8h5a4 4 0 0 0 0-8H7zm8 1a3 3 0 0 1 .576.059 3 3 0 0 1 .02.002c.018.003.034.01.052.013a3 3 0 0 1 .52.162 3 3 0 0 1 .478.258c.014.009.028.016.041.026a3 3 0 0 1 .006.003 3 3 0 0 1 .41.34l.026.024a3 3 0 0 1 .322.39l.053.075a3 3 0 0 1 .242.449l.024.053a3 3 0 0 1 .154.492l.02.082A3 3 0 0 1 18 7a3 3 0 0 1-.059.576 3 3 0 0 1-.002.02c-.003.018-.01.034-.013.052a3 3 0 0 1-.162.52 3 3 0 0 1-.258.478c-.009.014-.016.028-.026.041a3 3 0 0 1-.003.006 3 3 0 0 1-.34.41l-.024.026a3 3 0 0 1-.39.322l-.075.053a3 3 0 0 1-.449.242l-.053.024a3 3 0 0 1-.492.154l-.082.02A3 3 0 0 1 15 10a3 3 0 0 1-3-3 3 3 0 0 1 3-3z" fill="#3a539b" stroke-width="6"/></svg>
